src/glyphs/latin/small/a.svg

<?xml version="1.0" encoding="UTF-8" standalone="no"?>
<!-- Created with Inkscape (http://www.inkscape.org/) -->

<svg
   xmlns:dc="http://purl.org/dc/elements/1.1/"
   xmlns:cc="http://creativecommons.org/ns#"
   xmlns:rdf="http://www.w3.org/1999/02/22-rdf-syntax-ns#"
   xmlns:svg="http://www.w3.org/2000/svg"
   xmlns="http://www.w3.org/2000/svg"
   xmlns:xlink="http://www.w3.org/1999/xlink"
   xmlns:sodipodi="http://sodipodi.sourceforge.net/DTD/sodipodi-0.dtd"
   xmlns:inkscape="http://www.inkscape.org/namespaces/inkscape"
   width="1000"
   height="1000"
   id="svg2"
   version="1.1"
   inkscape:version="0.91 r13725"
   sodipodi:docname="a.svg">
  <defs
     id="defs4" />
  <sodipodi:namedview
     id="base"
     pagecolor="#ffffff"
     bordercolor="#666666"
     borderopacity="1.0"
     inkscape:pageopacity="0.0"
     inkscape:pageshadow="2"
     inkscape:zoom="1.4142136"
     inkscape:cx="-22.749231"
     inkscape:cy="385.92061"
     inkscape:document-units="px"
     inkscape:current-layer="layer3"
     showgrid="true"
     inkscape:window-width="1920"
     inkscape:window-height="1026"
     inkscape:window-x="0"
     inkscape:window-y="25"
     inkscape:window-maximized="1"
     showguides="true"
     inkscape:guide-bbox="true"
     inkscape:snap-global="true"
     inkscape:snap-bbox="true"
     inkscape:object-paths="true"
     inkscape:snap-intersection-paths="true"
     inkscape:object-nodes="true"
     inkscape:snap-smooth-nodes="true">
    <inkscape:grid
       type="xygrid"
       id="grid2985"
       empspacing="4"
       visible="true"
       enabled="true"
       snapvisiblegridlinesonly="true"
       spacingx="7px"
       spacingy="7px"
       dotted="false"
       empcolor="#1a0073"
       empopacity="0.49803922"
       originy="200px" />
    <sodipodi:guide
       orientation="0,1"
       position="420,200"
       id="guide3006" />
    <sodipodi:guide
       orientation="0,1"
       position="0,760"
       id="guide3008" />
    <sodipodi:guide
       orientation="1,0"
       position="84,1012"
       id="guide3010" />
  </sodipodi:namedview>
  <metadata
     id="metadata7">
    <rdf:RDF>
      <cc:Work
         rdf:about="">
        <dc:format>image/svg+xml</dc:format>
        <dc:type
           rdf:resource="http://purl.org/dc/dcmitype/StillImage" />
        <dc:title />
      </cc:Work>
    </rdf:RDF>
  </metadata>
  <g
     inkscape:label="bitmap"
     inkscape:groupmode="layer"
     id="layer1"
     transform="translate(0,-52.362183)"
     style="opacity:0.33000004;display:inline"
     sodipodi:insensitive="true">
    <text
       xml:space="preserve"
       style="font-size:16px;font-style:normal;font-variant:normal;font-weight:normal;font-stretch:normal;text-align:end;line-height:125%;letter-spacing:0px;word-spacing:0px;writing-mode:lr-tb;text-anchor:end;fill:#000000;fill-opacity:1;stroke:none;font-family:Droid Sans;-inkscape-font-specification:Droid Sans"
       x="-5.9505138"
       y="871.17053"
       id="text3143"
       sodipodi:linespacing="125%"><tspan
         sodipodi:role="line"
         id="tspan3145"
         x="-5.9505138"
         y="871.17053">0</tspan></text>
    <text
       sodipodi:linespacing="125%"
       id="text3147"
       y="731.17053"
       x="-5.9505138"
       style="font-size:16px;font-style:normal;font-variant:normal;font-weight:normal;font-stretch:normal;text-align:end;line-height:125%;letter-spacing:0px;word-spacing:0px;writing-mode:lr-tb;text-anchor:end;fill:#000000;fill-opacity:1;stroke:none;font-family:Droid Sans;-inkscape-font-specification:Droid Sans"
       xml:space="preserve"><tspan
         y="731.17053"
         x="-5.9505138"
         id="tspan3149"
         sodipodi:role="line">5</tspan></text>
    <text
       sodipodi:linespacing="125%"
       id="text3151"
       y="591.17053"
       x="-5.9505138"
       style="font-size:16px;font-style:normal;font-variant:normal;font-weight:normal;font-stretch:normal;text-align:end;line-height:125%;letter-spacing:0px;word-spacing:0px;writing-mode:lr-tb;text-anchor:end;fill:#000000;fill-opacity:1;stroke:none;font-family:Droid Sans;-inkscape-font-specification:Droid Sans"
       xml:space="preserve"><tspan
         y="591.17053"
         x="-5.9505138"
         id="tspan3153"
         sodipodi:role="line">10</tspan></text>
    <text
       xml:space="preserve"
       style="font-size:16px;font-style:normal;font-variant:normal;font-weight:normal;font-stretch:normal;text-align:end;line-height:125%;letter-spacing:0px;word-spacing:0px;writing-mode:lr-tb;text-anchor:end;fill:#000000;fill-opacity:1;stroke:none;font-family:Droid Sans;-inkscape-font-specification:Droid Sans"
       x="-5.9505138"
       y="451.17053"
       id="text3155"
       sodipodi:linespacing="125%"><tspan
         sodipodi:role="line"
         id="tspan3157"
         x="-5.9505138"
         y="451.17053">15</tspan></text>
    <text
       xml:space="preserve"
       style="font-size:16px;font-style:normal;font-variant:normal;font-weight:normal;font-stretch:normal;text-align:end;line-height:125%;letter-spacing:0px;word-spacing:0px;writing-mode:lr-tb;text-anchor:end;fill:#000000;fill-opacity:1;stroke:none;font-family:Droid Sans;-inkscape-font-specification:Droid Sans"
       x="-5.9505138"
       y="311.17053"
       id="text3159"
       sodipodi:linespacing="125%"><tspan
         sodipodi:role="line"
         id="tspan3161"
         x="-5.9505138"
         y="311.17053">20</tspan></text>
    <use
       x="0"
       y="0"
       xlink:href="#text3147"
       id="use3165"
       transform="translate(138,140)"
       width="1000"
       height="1000" />
    <use
       x="0"
       y="0"
       xlink:href="#text3151"
       id="use3167"
       transform="translate(278,280)"
       width="1000"
       height="1000" />
    <use
       x="0"
       y="0"
       xlink:href="#text3155"
       id="use3169"
       transform="translate(418,420)"
       width="1000"
       height="1000" />
    <use
       x="0"
       y="0"
       xlink:href="#text3159"
       id="use3171"
       transform="translate(558,560)"
       width="1000"
       height="1000" />
    <image
       y="287.04111"
       x="-10.652237"
       id="image4703"
       xlink:href="file:///home/as/font/gost/glyphs/latin/small/a.png"
       height="793.63519"
       width="496.79245" />
  </g>
  <g
     inkscape:groupmode="layer"
     id="layer3"
     inkscape:label="glyph"
     style="display:inline">
    <path
       style="opacity:0.8;fill:#990000;stroke:none;stroke-width:1px;stroke-linecap:butt;stroke-linejoin:miter;stroke-opacity:1"
       d="m 238,394 c -70,0 -126,28 -161,49 l 42,68 c 21,-19 63,-47 105,-47 49,0 84,35 84,63 l 0,21 c -56,14 -238.106162,7.63697 -238,140 0.06737,83.99997 70,126 126,126 56,0 98,-35 112,-63 7,56 35,63 84,63 l 35,-70 c -14,0 -35,0 -35,-35 l 0,-175 C 392,464 329,394 238,394 Z m 70,217 0,70 c 0,7 -49,63 -91,63 -14,0 -56,-14 -56,-63 0,-63 112,-56 147,-70 z"
       id="path4727"
       inkscape:connector-curvature="0"
       sodipodi:nodetypes="sccsscsscccssscsssc" />
  </g>
</svg>

<?xml version="1.0" encoding="UTF-8" standalone="no"?>
<!-- Created with Inkscape (http://www.inkscape.org/) -->

<svg
   xmlns:dc="http://purl.org/dc/elements/1.1/"
   xmlns:cc="http://creativecommons.org/ns#"
   xmlns:rdf="http://www.w3.org/1999/02/22-rdf-syntax-ns#"
   xmlns:svg="http://www.w3.org/2000/svg"
   xmlns="http://www.w3.org/2000/svg"
   xmlns:xlink="http://www.w3.org/1999/xlink"
   xmlns:sodipodi="http://sodipodi.sourceforge.net/DTD/sodipodi-0.dtd"
   xmlns:inkscape="http://www.inkscape.org/namespaces/inkscape"
   width="1000"
   height="1000"
   id="svg2"
   version="1.1"
   inkscape:version="0.48.3.1 r9886"
   sodipodi:docname="a.svg">
  <defs
     id="defs4" />
  <sodipodi:namedview
     id="base"
     pagecolor="#ffffff"
     bordercolor="#666666"
     borderopacity="1.0"
     inkscape:pageopacity="0.0"
     inkscape:pageshadow="2"
     inkscape:zoom="0.5"
     inkscape:cx="423.17683"
     inkscape:cy="834.22733"
     inkscape:document-units="px"
     inkscape:current-layer="layer3"
     showgrid="true"
     inkscape:window-width="1280"
     inkscape:window-height="980"
     inkscape:window-x="0"
     inkscape:window-y="24"
     inkscape:window-maximized="1"
     showguides="true"
     inkscape:guide-bbox="true"
     inkscape:snap-global="true">
    <inkscape:grid
       type="xygrid"
       id="grid2985"
       empspacing="4"
       visible="true"
       enabled="true"
       snapvisiblegridlinesonly="true"
       spacingx="7px"
       spacingy="7px"
       dotted="false"
       empcolor="#1a0073"
       empopacity="0.49803922"
       originy="200px" />
    <sodipodi:guide
       orientation="0,1"
       position="420,200"
       id="guide3006" />
    <sodipodi:guide
       orientation="0,1"
       position="0,760"
       id="guide3008" />
    <sodipodi:guide
       orientation="1,0"
       position="84,1012"
       id="guide3010" />
  </sodipodi:namedview>
  <metadata
     id="metadata7">
    <rdf:RDF>
      <cc:Work
         rdf:about="">
        <dc:format>image/svg+xml</dc:format>
        <dc:type
           rdf:resource="http://purl.org/dc/dcmitype/StillImage" />
        <dc:title></dc:title>
      </cc:Work>
    </rdf:RDF>
  </metadata>
  <g
     inkscape:label="bitmap"
     inkscape:groupmode="layer"
     id="layer1"
     transform="translate(0,-52.362183)"
     style="opacity:0.33000004;display:inline"
     sodipodi:insensitive="true">
    <text
       xml:space="preserve"
       style="font-size:16px;font-style:normal;font-variant:normal;font-weight:normal;font-stretch:normal;text-align:end;line-height:125%;letter-spacing:0px;word-spacing:0px;writing-mode:lr-tb;text-anchor:end;fill:#000000;fill-opacity:1;stroke:none;font-family:Droid Sans;-inkscape-font-specification:Droid Sans"
       x="-5.9505138"
       y="871.17053"
       id="text3143"
       sodipodi:linespacing="125%"><tspan
         sodipodi:role="line"
         id="tspan3145"
         x="-5.9505138"
         y="871.17053">0</tspan></text>
    <text
       sodipodi:linespacing="125%"
       id="text3147"
       y="731.17053"
       x="-5.9505138"
       style="font-size:16px;font-style:normal;font-variant:normal;font-weight:normal;font-stretch:normal;text-align:end;line-height:125%;letter-spacing:0px;word-spacing:0px;writing-mode:lr-tb;text-anchor:end;fill:#000000;fill-opacity:1;stroke:none;font-family:Droid Sans;-inkscape-font-specification:Droid Sans"
       xml:space="preserve"><tspan
         y="731.17053"
         x="-5.9505138"
         id="tspan3149"
         sodipodi:role="line">5</tspan></text>
    <text
       sodipodi:linespacing="125%"
       id="text3151"
       y="591.17053"
       x="-5.9505138"
       style="font-size:16px;font-style:normal;font-variant:normal;font-weight:normal;font-stretch:normal;text-align:end;line-height:125%;letter-spacing:0px;word-spacing:0px;writing-mode:lr-tb;text-anchor:end;fill:#000000;fill-opacity:1;stroke:none;font-family:Droid Sans;-inkscape-font-specification:Droid Sans"
       xml:space="preserve"><tspan
         y="591.17053"
         x="-5.9505138"
         id="tspan3153"
         sodipodi:role="line">10</tspan></text>
    <text
       xml:space="preserve"
       style="font-size:16px;font-style:normal;font-variant:normal;font-weight:normal;font-stretch:normal;text-align:end;line-height:125%;letter-spacing:0px;word-spacing:0px;writing-mode:lr-tb;text-anchor:end;fill:#000000;fill-opacity:1;stroke:none;font-family:Droid Sans;-inkscape-font-specification:Droid Sans"
       x="-5.9505138"
       y="451.17053"
       id="text3155"
       sodipodi:linespacing="125%"><tspan
         sodipodi:role="line"
         id="tspan3157"
         x="-5.9505138"
         y="451.17053">15</tspan></text>
    <text
       xml:space="preserve"
       style="font-size:16px;font-style:normal;font-variant:normal;font-weight:normal;font-stretch:normal;text-align:end;line-height:125%;letter-spacing:0px;word-spacing:0px;writing-mode:lr-tb;text-anchor:end;fill:#000000;fill-opacity:1;stroke:none;font-family:Droid Sans;-inkscape-font-specification:Droid Sans"
       x="-5.9505138"
       y="311.17053"
       id="text3159"
       sodipodi:linespacing="125%"><tspan
         sodipodi:role="line"
         id="tspan3161"
         x="-5.9505138"
         y="311.17053">20</tspan></text>
    <use
       x="0"
       y="0"
       xlink:href="#text3147"
       id="use3165"
       transform="translate(138,140)"
       width="1000"
       height="1000" />
    <use
       x="0"
       y="0"
       xlink:href="#text3151"
       id="use3167"
       transform="translate(278,280)"
       width="1000"
       height="1000" />
    <use
       x="0"
       y="0"
       xlink:href="#text3155"
       id="use3169"
       transform="translate(418,420)"
       width="1000"
       height="1000" />
    <use
       x="0"
       y="0"
       xlink:href="#text3159"
       id="use3171"
       transform="translate(558,560)"
       width="1000"
       height="1000" />
    <image
       y="287.04111"
       x="-10.652237"
       id="image4703"
       xlink:href="file:///home/as/font/gost/glyphs/latin/small/a.png"
       height="793.63519"
       width="496.79245" />
  </g>
  <g
     inkscape:groupmode="layer"
     id="layer3"
     inkscape:label="glyph"
     style="display:inline">
    <path
       style="fill:#990000;stroke:none;stroke-width:1px;stroke-linecap:butt;stroke-linejoin:miter;stroke-opacity:1"
       d="M 224 394 C 154 394 112 422 77 443 L 119 513 C 140 492 182 464 224 464 C 266 464 308 498.50743 308 520 L 308 548 C 308 548 70 555 70 688 C 70 772 140 814 196 814 C 252 814 294 779 308 751 C 315 807 343 814 392 814 L 427 744 C 413 744 392 744 392 709 L 392 520 C 392 450 294 394 224 394 z M 308 611 L 308 681 C 308 688 259 744 217 744 C 203 744 161 730 161 681 C 161 618 273 625 308 611 z "
       id="path4727" />
  </g>
</svg>
